X:177
T:High Barbaree (3)
M:6/8
L:1/8
K:Dm
A,|\
D2^C D2E|F3 E2D|D2E D2B,|D3-D2F|
A3- A2F|G3- G2E|(D2E) (F2G)|A3-A2F|
A2A (AG)F|G2G G2E|F2G (AG)F|C3-C3 |
D2D D2D|D2E F2G|A3 D2^C|D3-D2 ||
